**harm	**harte	**silbe	**rhyme	**timestamp	**phrase	**leadinstrument	**kern
*M4/4	*M4/4	*	*	*	*	*	*
*	*	*	*	*	*	*	*
*	*	*	*	*	*	*	*
*A:	*A:	*	*	*	*	*	*A:
*	*	*	*	*	*	*	*
*	*	*	*	*	*	*	*
1r;	N	.	.	0	.	r	1r;
=1	=1	=1	=1	=1	=1	=1	=1
*>Letter>A	*>Letter>A	*>Letter>A	*>Letter>A	*>Letter>A	*>Letter>A	*>Letter>A	*>Letter>A
*>Label>Intro	*>Label>Intro	*>Label>Intro	*>Label>Intro	*>Label>Intro	*>Label>Intro	*>Label>Intro	*>Label>Intro
1r	N	.	.	0.302	newline	bass voice	1r
=2	=2	=2	=2	=2	=2	=2	=2
1I	A:1	.	.	2.119	.	bass voice	1A 1cc# 1ee
.	.	.	.	.	.	.	.
.	.	Got	.	.	.	.	.
.	.	.	.	.	.	.	.
.	.	my-	.	.	.	.	.
.	.	-self	.	.	.	.	.
.	.	a	.	.	.	.	.
=3	=3	=3	=3	=3	=3	=3	=3
*>Letter>B	*>Letter>B	*>Letter>B	*>Letter>B	*>Letter>B	*>Letter>B	*>Letter>B	*>Letter>B
*>Label>Chorus	*>Label>Chorus	*>Label>Chorus	*>Label>Chorus	*>Label>Chorus	*>Label>Chorus	*>Label>Chorus	*>Label>Chorus
.	.	_	.	.	.	.	.
1I	A:maj	cry-	.	3.936	newline	bass voice	1A 1cc# 1ee
.	.	-in',	.	.	.	.	.
.	.	tal-	(A	.	.	.	.
.	.	-kin',	a)	.	.	.	.
=4	=4	=4	=4	=4	=4	=4	=4
.	.	_	.	.	.	.	.
1I	A:maj	slee-	.	5.826	.	bass voice	1A 1cc# 1ee
.	.	-pin',	.	.	.	.	.
.	.	wal-	(A	.	.	.	.
.	.	-kin'	a)	.	.	.	.
.	.	_	.	.	.	.	.
=5	=5	=5	=5	=5	=5	=5	=5
1I	A:maj	li-	.	7.715	.	bass voice	1A 1cc# 1ee
.	.	_	.	.	.	.	.
.	.	-ving	.	.	.	.	.
.	.	doll	.	.	.	.	.
.	.	_	.	.	.	.	.
=6	=6	=6	=6	=6	=6	=6	=6
1I	A:maj	.	.	9.605	.	bass voice	1A 1cc# 1ee
.	.	.	.	.	.	.	.
.	.	Got	.	.	.	.	.
.	.	.	.	.	.	.	.
.	.	to	.	.	.	.	.
.	.	do	.	.	.	.	.
.	.	my	.	.	.	.	.
=7	=7	=7	=7	=7	=7	=7	=7
.	.	_	.	.	.	.	.
1I	A:maj	best	.	11.494	newline	bass voice	1A 1cc# 1ee
.	.	to	.	.	.	.	.
.	.	please	(B	.	.	.	.
.	.	_	.	.	.	.	.
.	.	her,	b)	.	.	.	.
=8	=8	=8	=8	=8	=8	=8	=8
1I	A:maj	just	.	13.384	.	bass voice	1A 1cc# 1ee
.	.	cuz	.	.	.	.	.
.	.	she's	(B	.	.	.	.
.	.	a	b)	.	.	.	.
.	.	_	.	.	.	.	.
=9	=9	=9	=9	=9	=9	=9	=9
1II7	B:7	li-	.	15.274	.	bass voice	1B 1dd# 1ff# 1aa
.	.	_	.	.	.	.	.
.	.	-ving	.	.	.	.	.
.	.	doll	.	.	.	.	.
.	.	_	.	.	.	.	.
=10	=10	=10	=10	=10	=10	=10	=10
1V7	E:7	.	.	17.164	.	bass voice	1E 1g# 1b 1dd
.	.	.	.	.	.	.	.
.	.	Got	.	.	.	.	.
.	.	_	.	.	.	.	.
.	.	a	.	.	.	.	.
.	.	ro-	.	.	.	.	.
.	.	-vin'	.	.	.	.	.
=11	=11	=11	=11	=11	=11	=11	=11
.	.	_	.	.	.	.	.
1I	A:maj	eye	C	19.054	newline	bass voice	1A 1cc# 1ee
.	.	and	.	.	.	.	.
.	.	that	.	.	.	.	.
.	.	is	.	.	.	.	.
.	.	why	C	.	.	.	.
=12	=12	=12	=12	=12	=12	=12	=12
1I	A:maj	_	.	20.959	.	bass voice	1A 1cc# 1ee
.	.	she	.	.	.	.	.
.	.	sa-	.	.	.	.	.
.	.	-tis-	.	.	.	.	.
.	.	_	.	.	.	.	.
.	.	-fies	C	.	.	.	.
=13	=13	=13	=13	=13	=13	=13	=13
1VI7	F#:7	_	.	22.864	.	bass voice	1F# 1a# 1cc# 1ee
.	.	_	.	.	.	.	.
.	.	my	.	.	.	.	.
.	.	soul	D	.	.	.	.
=14	=14	=14	=14	=14	=14	=14	=14
1VI7	F#:7	.	.	24.768	.	bass voice	1F# 1a# 1cc# 1ee
.	.	.	.	.	.	.	.
.	.	_	.	.	.	.	.
.	.	Got	.	.	.	.	.
.	.	.	.	.	.	.	.
.	.	the	.	.	.	.	.
.	.	one	.	.	.	.	.
.	.	and	.	.	.	.	.
=15	=15	=15	=15	=15	=15	=15	=15
.	.	_	.	.	.	.	.
1I	A:maj	on-	.	26.673	newline	bass voice	1A 1cc# 1ee
.	.	-ly	.	.	.	.	.
.	.	_	.	.	.	.	.
.	.	wal-	.	.	.	.	.
.	.	-kin',	.	.	.	.	.
=16	=16	=16	=16	=16	=16	=16	=16
1V	E:maj	tal-	.	28.534	.	bass voice	1E 1g# 1b
.	.	-kin'	.	.	.	.	.
.	.	.	.	.	.	.	.
.	.	li-	.	.	.	.	.
.	.	-ving	.	.	.	.	.
.	.	doll	D	.	.	.	.
=17	=17	=17	=17	=17	=17	=17	=17
1I	A:maj	_	.	30.396	.	bass voice	1A 1cc# 1ee
.	.	.	.	.	.	.	.
.	.	.	.	.	.	.	.
=18	=18	=18	=18	=18	=18	=18	=18
4I	A:maj	.	.	32.257	.	bass voice	4A 4cc# 4ee
.	.	Well,	.	.	.	.	.
2.r	N	take	.	32.722	.	bass voice	2.r
.	.	a	.	.	.	.	.
.	.	look	.	.	.	.	.
.	.	at	.	.	.	.	.
.	.	her	.	.	.	.	.
=19	=19	=19	=19	=19	=19	=19	=19
*>Letter>C	*>Letter>C	*>Letter>C	*>Letter>C	*>Letter>C	*>Letter>C	*>Letter>C	*>Letter>C
*>Label>Bridge	*>Label>Bridge	*>Label>Bridge	*>Label>Bridge	*>Label>Bridge	*>Label>Bridge	*>Label>Bridge	*>Label>Bridge
1IV	D:maj	hair	.	34.118	newline	bass voice	1D 1f# 1a
.	.	.	.	.	.	.	.
.	.	.	.	.	.	.	.
.	.	it's	.	.	.	.	.
.	.	real,	E	.	.	.	.
=20	=20	=20	=20	=20	=20	=20	=20
1IV	D:maj	_	.	36.012	.	bass voice	1D 1f# 1a
.	.	and	.	.	.	.	.
.	.	if	.	.	.	.	.
.	.	you	.	.	.	.	.
.	.	don't	.	.	.	.	.
.	.	be-	.	.	.	.	.
.	.	_	.	.	.	.	.
.	.	-lieve	.	.	.	.	.
=21	=21	=21	=21	=21	=21	=21	=21
1I	A:maj	_	.	37.906	.	bass voice	1A 1cc# 1ee
.	.	what	.	.	.	.	.
.	.	I	.	.	.	.	.
.	.	say,	.	.	.	.	.
.	.	_	.	.	.	.	.
.	.	_	.	.	.	.	.
.	.	just	.	.	.	.	.
.	.	feel	E	.	.	.	.
=22	=22	=22	=22	=22	=22	=22	=22
1I	A:maj	_	.	39.8	.	bass voice	1A 1cc# 1ee
.	.	Gon-	.	.	.	.	.
.	.	-na	.	.	.	.	.
.	.	lock	.	.	.	.	.
.	.	her	.	.	.	.	.
.	.	up	.	.	.	.	.
=23	=23	=23	=23	=23	=23	=23	=23
1IV	D:maj	_	.	41.694	newline	bass voice	1D 1f# 1a
.	.	in	.	.	.	.	.
.	.	a	.	.	.	.	.
.	.	trunk	F	.	.	.	.
.	.	_	.	.	.	.	.
.	.	.	.	.	.	.	.
.	.	so	.	.	.	.	.
=24	=24	=24	=24	=24	=24	=24	=24
1IV	D:maj	no	.	43.525	.	bass voice	1D 1f# 1a
.	.	big	.	.	.	.	.
.	.	hunk	F	.	.	.	.
.	.	_	.	.	.	.	.
.	.	can	.	.	.	.	.
.	.	_	.	.	.	.	.
=25	=25	=25	=25	=25	=25	=25	=25
.	.	_	.	.	.	.	.
.	.	_	.	.	.	.	.
4V	E:maj	steal	E	45.356	.	bass voice	4E 4g# 4b
.	.	her	.	.	.	.	.
2.r	N	a-	.	45.813	.	bass voice	2.r
.	.	-way	.	.	.	.	.
.	.	_	.	.	.	.	.
.	.	from	.	.	.	.	.
=26	=26	=26	=26	=26	=26	=26	=26
.	.	_	.	.	.	.	.
1r	N	me	.	47.187	.	bass voice	1r
.	.	.	.	.	.	.	.
.	.	Got	.	.	.	.	.
.	.	.	.	.	.	.	.
.	.	my-	.	.	.	.	.
.	.	-self	.	.	.	.	.
.	.	a	.	.	.	.	.
=27	=27	=27	=27	=27	=27	=27	=27
*>Letter>B	*>Letter>B	*>Letter>B	*>Letter>B	*>Letter>B	*>Letter>B	*>Letter>B	*>Letter>B
*>Label>Chorus	*>Label>Chorus	*>Label>Chorus	*>Label>Chorus	*>Label>Chorus	*>Label>Chorus	*>Label>Chorus	*>Label>Chorus
.	.	_	.	.	.	.	.
1I	A:maj	cry-	.	49.017	newline	bass voice	1A 1cc# 1ee
.	.	-in',	.	.	.	.	.
.	.	tal-	(A	.	.	.	.
.	.	-kin',	a)	.	.	.	.
=28	=28	=28	=28	=28	=28	=28	=28
.	.	_	.	.	.	.	.
1I	A:maj	slee-	.	50.91	.	bass voice	1A 1cc# 1ee
.	.	-pin',	.	.	.	.	.
.	.	wal-	(A	.	.	.	.
.	.	-kin'	a)	.	.	.	.
=29	=29	=29	=29	=29	=29	=29	=29
1I	A:maj	li-	.	52.803	.	bass voice	1A 1cc# 1ee
.	.	_	.	.	.	.	.
.	.	-ving	.	.	.	.	.
.	.	doll	.	.	.	.	.
.	.	_	.	.	.	.	.
=30	=30	=30	=30	=30	=30	=30	=30
1I	A:maj	.	.	54.696	.	bass voice	1A 1cc# 1ee
.	.	.	.	.	.	.	.
.	.	Got	.	.	.	.	.
.	.	.	.	.	.	.	.
.	.	to	.	.	.	.	.
.	.	do	.	.	.	.	.
.	.	my	.	.	.	.	.
=31	=31	=31	=31	=31	=31	=31	=31
.	.	_	.	.	.	.	.
1I	A:maj	best	.	56.589	newline	bass voice	1A 1cc# 1ee
.	.	to	.	.	.	.	.
.	.	_	.	.	.	.	.
.	.	_	.	.	.	.	.
.	.	please	(B	.	.	.	.
.	.	_	.	.	.	.	.
.	.	her,	b)	.	.	.	.
=32	=32	=32	=32	=32	=32	=32	=32
.	.	_	.	.	.	.	.
1I	A:maj	just	.	58.494	.	bass voice	1A 1cc# 1ee
.	.	cuz	.	.	.	.	.
.	.	she's	(B	.	.	.	.
.	.	a	b)	.	.	.	.
.	.	_	.	.	.	.	.
=33	=33	=33	=33	=33	=33	=33	=33
1II7	B:7	li-	.	60.4	.	bass voice	1B 1dd# 1ff# 1aa
.	.	_	.	.	.	.	.
.	.	-ving	.	.	.	.	.
.	.	doll	.	.	.	.	.
.	.	_	.	.	.	.	.
=34	=34	=34	=34	=34	=34	=34	=34
1V7	E:7	.	.	62.306	.	bass voice	1E 1g# 1b 1dd
.	.	.	.	.	.	.	.
.	.	Got	.	.	.	.	.
.	.	_	.	.	.	.	.
.	.	a	.	.	.	.	.
.	.	ro-	.	.	.	.	.
.	.	-vin'	.	.	.	.	.
=35	=35	=35	=35	=35	=35	=35	=35
1I	A:maj	eye	C	64.212	newline	bass voice	1A 1cc# 1ee
.	.	_	.	.	.	.	.
.	.	and	.	.	.	.	.
.	.	that	.	.	.	.	.
.	.	is	.	.	.	.	.
.	.	why	C	.	.	.	.
=36	=36	=36	=36	=36	=36	=36	=36
1I	A:maj	_	.	66.096	.	bass voice	1A 1cc# 1ee
.	.	she	.	.	.	.	.
.	.	sa-	.	.	.	.	.
.	.	-tis-	C	.	.	.	.
.	.	_	.	.	.	.	.
.	.	-fies	.	.	.	.	.
=37	=37	=37	=37	=37	=37	=37	=37
1VI7	F#:7	_	.	67.98	.	bass voice	1F# 1a# 1cc# 1ee
.	.	_	.	.	.	.	.
.	.	my	.	.	.	.	.
.	.	soul	D	.	.	.	.
=38	=38	=38	=38	=38	=38	=38	=38
1VI7	F#:7	.	.	69.864	.	bass voice	1F# 1a# 1cc# 1ee
.	.	.	.	.	.	.	.
.	.	_	.	.	.	.	.
.	.	Got	.	.	.	.	.
.	.	.	.	.	.	.	.
.	.	the	.	.	.	.	.
.	.	one	.	.	.	.	.
.	.	and	.	.	.	.	.
=39	=39	=39	=39	=39	=39	=39	=39
.	.	_	.	.	.	.	.
1I	A:maj	on-	.	71.748	newline	voice	1A 1cc# 1ee
.	.	-ly	.	.	.	.	.
.	.	_	.	.	.	.	.
.	.	wal-	(A	.	.	.	.
.	.	-kin',	a)	.	.	.	.
=40	=40	=40	=40	=40	=40	=40	=40
1V	E:maj	tal-	(A	73.626	.	voice	1E 1g# 1b
.	.	-kin'	a)	.	.	.	.
.	.	.	.	.	.	.	.
.	.	li-	.	.	.	.	.
.	.	-ving	.	.	.	.	.
.	.	doll	D	.	.	.	.
=41	=41	=41	=41	=41	=41	=41	=41
1I	A:maj	_	.	75.504	.	voice	1A 1cc# 1ee
=42	=42	=42	=42	=42	=42	=42	=42
4I	A:maj	.	.	77.381	.	voice	4A 4cc# 4ee
.	.	Mmm	.	.	.	.	.
2.r	N	_	.	77.851	.	voice	2.r
.	.	_	.	.	.	.	.
=43	=43	=43	=43	=43	=43	=43	=43
*>Letter>B	*>Letter>B	*>Letter>B	*>Letter>B	*>Letter>B	*>Letter>B	*>Letter>B	*>Letter>B
*>Label>Solo	*>Label>Solo	*>Label>Solo	*>Label>Solo	*>Label>Solo	*>Label>Solo	*>Label>Solo	*>Label>Solo
1I	A:maj	_	.	79.259	newline	guitar	1A 1cc# 1ee
.	.	.	.	.	.	.	.
=44	=44	=44	=44	=44	=44	=44	=44
1I	A:maj	.	.	81.157	.	guitar	1A 1cc# 1ee
=45	=45	=45	=45	=45	=45	=45	=45
1I	A:maj	.	.	83.055	.	guitar	1A 1cc# 1ee
=46	=46	=46	=46	=46	=46	=46	=46
1I	A:maj	.	.	84.953	.	guitar	1A 1cc# 1ee
=47	=47	=47	=47	=47	=47	=47	=47
1I	A:maj	.	.	86.851	newline	guitar	1A 1cc# 1ee
=48	=48	=48	=48	=48	=48	=48	=48
1I	A:maj	.	.	88.723	.	guitar	1A 1cc# 1ee
=49	=49	=49	=49	=49	=49	=49	=49
1II7	B:7	.	.	90.595	.	guitar	1B 1dd# 1ff# 1aa
=50	=50	=50	=50	=50	=50	=50	=50
1V7	E:7	.	.	92.467	.	guitar	1E 1g# 1b 1dd
=51	=51	=51	=51	=51	=51	=51	=51
1I	A:maj	.	.	94.339	newline	guitar	1A 1cc# 1ee
=52	=52	=52	=52	=52	=52	=52	=52
1I	A:maj	.	.	96.221	.	guitar	1A 1cc# 1ee
=53	=53	=53	=53	=53	=53	=53	=53
1VI7	F#:7	.	.	98.103	.	guitar	1F# 1a# 1cc# 1ee
=54	=54	=54	=54	=54	=54	=54	=54
1VI7	F#:7	.	.	99.985	.	guitar	1F# 1a# 1cc# 1ee
=55	=55	=55	=55	=55	=55	=55	=55
1I	A:maj	.	.	101.867	newline	guitar	1A 1cc# 1ee
=56	=56	=56	=56	=56	=56	=56	=56
1V	E:maj	.	.	103.755	.	guitar	1E 1g# 1b
=57	=57	=57	=57	=57	=57	=57	=57
1I	A:maj	.	.	105.643	.	guitar	1A 1cc# 1ee
=58	=58	=58	=58	=58	=58	=58	=58
4I	A:maj	.	.	107.531	.	guitar	4A 4cc# 4ee
.	.	Well,	.	.	.	.	.
2.r	N	take	.	108.003	.	guitar	2.r
.	.	a	.	.	.	.	.
.	.	look	.	.	.	.	.
.	.	at	.	.	.	.	.
.	.	her	.	.	.	.	.
=59	=59	=59	=59	=59	=59	=59	=59
*>Letter>C	*>Letter>C	*>Letter>C	*>Letter>C	*>Letter>C	*>Letter>C	*>Letter>C	*>Letter>C
*>Label>Bridge	*>Label>Bridge	*>Label>Bridge	*>Label>Bridge	*>Label>Bridge	*>Label>Bridge	*>Label>Bridge	*>Label>Bridge
1IV	D:maj	hair	.	109.419	newline	voice	1D 1f# 1a
.	.	.	.	.	.	.	.
.	.	.	.	.	.	.	.
.	.	it's	.	.	.	.	.
.	.	real,	E	.	.	.	.
=60	=60	=60	=60	=60	=60	=60	=60
1IV	D:maj	_	.	111.318	.	voice	1D 1f# 1a
.	.	and	.	.	.	.	.
.	.	if	.	.	.	.	.
.	.	you	.	.	.	.	.
.	.	don't	.	.	.	.	.
.	.	be-	.	.	.	.	.
.	.	_	.	.	.	.	.
.	.	-lieve	.	.	.	.	.
=61	=61	=61	=61	=61	=61	=61	=61
1I	A:maj	_	.	113.217	.	voice	1A 1cc# 1ee
.	.	what	.	.	.	.	.
.	.	I	.	.	.	.	.
.	.	_	.	.	.	.	.
.	.	say,	.	.	.	.	.
.	.	_	.	.	.	.	.
.	.	_	.	.	.	.	.
.	.	just	.	.	.	.	.
.	.	feel	E	.	.	.	.
.	.	_	.	.	.	.	.
=62	=62	=62	=62	=62	=62	=62	=62
1I	A:maj	.	.	115.116	.	voice	1A 1cc# 1ee
.	.	Gon-	.	.	.	.	.
.	.	-na	.	.	.	.	.
.	.	lock	.	.	.	.	.
.	.	her	.	.	.	.	.
.	.	up	.	.	.	.	.
=63	=63	=63	=63	=63	=63	=63	=63
1IV	D:maj	_	.	117.015	newline	voice	1D 1f# 1a
.	.	in	.	.	.	.	.
.	.	a	.	.	.	.	.
.	.	trunk	F	.	.	.	.
.	.	_	.	.	.	.	.
.	.	.	.	.	.	.	.
.	.	so	.	.	.	.	.
=64	=64	=64	=64	=64	=64	=64	=64
1IV	D:maj	no	.	118.866	.	voice	1D 1f# 1a
.	.	_	.	.	.	.	.
.	.	big	.	.	.	.	.
.	.	hunk	F	.	.	.	.
.	.	_	.	.	.	.	.
.	.	can	.	.	.	.	.
.	.	_	.	.	.	.	.
=65	=65	=65	=65	=65	=65	=65	=65
.	.	_	.	.	.	.	.
.	.	_	.	.	.	.	.
4V	E:maj	steal	E	120.717	.	voice	4E 4g# 4b
.	.	her	.	.	.	.	.
2.r	N	a-	.	121.18	.	voice	2.r
.	.	-way	.	.	.	.	.
.	.	_	.	.	.	.	.
.	.	from	.	.	.	.	.
=66	=66	=66	=66	=66	=66	=66	=66
.	.	_	.	.	.	.	.
1r	N	me	.	122.568	.	voice	1r
.	.	.	.	.	.	.	.
.	.	Got	.	.	.	.	.
.	.	.	.	.	.	.	.
.	.	my-	.	.	.	.	.
.	.	-self	.	.	.	.	.
.	.	a	.	.	.	.	.
=67	=67	=67	=67	=67	=67	=67	=67
*>Letter>B2	*>Letter>B2	*>Letter>B2	*>Letter>B2	*>Letter>B2	*>Letter>B2	*>Letter>B2	*>Letter>B2
*>Label>Chorus	*>Label>Chorus	*>Label>Chorus	*>Label>Chorus	*>Label>Chorus	*>Label>Chorus	*>Label>Chorus	*>Label>Chorus
.	.	_	.	.	.	.	.
1I	A:maj	cry-	.	124.419	newline	voice	1A 1cc# 1ee
.	.	_	.	.	.	.	.
.	.	_	.	.	.	.	.
.	.	-in',	a	.	.	.	.
.	.	_	.	.	.	.	.
.	.	tal-	(A	.	.	.	.
.	.	-kin',	a)	.	.	.	.
=68	=68	=68	=68	=68	=68	=68	=68
.	.	_	.	.	.	.	.
1I	A:maj	slee-	.	126.323	.	voice	1A 1cc# 1ee
.	.	-pin',	.	.	.	.	.
.	.	_	.	.	.	.	.
.	.	wal-	(A	.	.	.	.
.	.	-kin'	a)	.	.	.	.
.	.	_	.	.	.	.	.
=69	=69	=69	=69	=69	=69	=69	=69
1I	A:maj	li-	.	128.228	.	voice	1A 1cc# 1ee
.	.	_	.	.	.	.	.
.	.	-ving	.	.	.	.	.
.	.	doll	.	.	.	.	.
.	.	_	.	.	.	.	.
=70	=70	=70	=70	=70	=70	=70	=70
1I	A:maj	.	.	130.132	.	voice	1A 1cc# 1ee
.	.	.	.	.	.	.	.
.	.	Got	.	.	.	.	.
.	.	.	.	.	.	.	.
.	.	to	.	.	.	.	.
.	.	do	.	.	.	.	.
.	.	my	.	.	.	.	.
=71	=71	=71	=71	=71	=71	=71	=71
.	.	_	.	.	.	.	.
1I	A:maj	best	.	132.036	newline	voice	1A 1cc# 1ee
.	.	_	.	.	.	.	.
.	.	_	.	.	.	.	.
.	.	to	.	.	.	.	.
.	.	please	(B	.	.	.	.
.	.	_	.	.	.	.	.
.	.	her,	b)	.	.	.	.
=72	=72	=72	=72	=72	=72	=72	=72
.	.	_	.	.	.	.	.
1I	A:maj	just	.	133.932	.	voice	1A 1cc# 1ee
.	.	cuz	.	.	.	.	.
.	.	she's	(B	.	.	.	.
.	.	a	b)	.	.	.	.
.	.	_	.	.	.	.	.
=73	=73	=73	=73	=73	=73	=73	=73
1II7	B:7	li-	.	135.829	.	voice	1B 1dd# 1ff# 1aa
.	.	_	.	.	.	.	.
.	.	-ving	.	.	.	.	.
.	.	doll	.	.	.	.	.
.	.	_	.	.	.	.	.
=74	=74	=74	=74	=74	=74	=74	=74
1V7	E:7	.	.	137.725	.	voice	1E 1g# 1b 1dd
.	.	.	.	.	.	.	.
.	.	Got	.	.	.	.	.
.	.	_	.	.	.	.	.
.	.	a	.	.	.	.	.
.	.	ro-	.	.	.	.	.
.	.	-vin'	.	.	.	.	.
=75	=75	=75	=75	=75	=75	=75	=75
1I	A:maj	eye	C	139.621	newline	voice	1A 1cc# 1ee
.	.	_	.	.	.	.	.
.	.	and	.	.	.	.	.
.	.	that	.	.	.	.	.
.	.	is	.	.	.	.	.
.	.	why	C	.	.	.	.
=76	=76	=76	=76	=76	=76	=76	=76
1I	A:maj	_	.	141.5	.	voice	1A 1cc# 1ee
.	.	she	.	.	.	.	.
.	.	sa-	.	.	.	.	.
.	.	-tis-	.	.	.	.	.
.	.	_	.	.	.	.	.
.	.	-fies	C	.	.	.	.
=77	=77	=77	=77	=77	=77	=77	=77
1VI7	F#:7	_	.	143.379	.	voice	1F# 1a# 1cc# 1ee
.	.	_	.	.	.	.	.
.	.	my	.	.	.	.	.
.	.	soul!	D	.	.	.	.
=78	=78	=78	=78	=78	=78	=78	=78
1VI7	F#:7	_	.	145.259	.	voice	1F# 1a# 1cc# 1ee
.	.	.	.	.	.	.	.
.	.	_	.	.	.	.	.
.	.	Got	.	.	.	.	.
.	.	.	.	.	.	.	.
.	.	the	.	.	.	.	.
.	.	one	.	.	.	.	.
.	.	and	.	.	.	.	.
=79	=79	=79	=79	=79	=79	=79	=79
.	.	_	.	.	.	.	.
1I	A:maj	on-	.	147.138	newline	voice	1A 1cc# 1ee
.	.	-ly	.	.	.	.	.
.	.	_	.	.	.	.	.
.	.	wal-	(A	.	.	.	.
.	.	-kin',	a)	.	.	.	.
=80	=80	=80	=80	=80	=80	=80	=80
4V	E:maj	tal-	(A	149.034	.	voice	4E 4g# 4b
2.r	N	-kin'	a)	149.508	.	voice	2.r
.	.	.	.	.	.	.	.
.	.	li-	.	.	.	.	.
.	.	-ving	.	.	.	.	.
.	.	doll	.	.	.	.	.
=81	=81	=81	=81	=81	=81	=81	=81
1r	N	_	.	150.93	.	voice	1r
.	.	_	.	.	.	.	.
.	.	_	.	.	.	.	.
.	.	_	.	.	.	.	.
=82	=82	=82	=82	=82	=82	=82	=82
1I	A:maj6(9)	_	.	152.826	.	voice	1A 1cc# 1ee
.	.	.	.	.	.	.	.
1r;	N	.	.	155.907	.	r	1r;
1r;	N	.	.	158.833	.	r	1r;
*-	*-	*-	*-	*-	*-	*-	*-
!!!BillboardChartDate: 1959/10/12
!!!BillboardPeak: 30
!!!BillboardWeeksOnChart: 13
!!!COC: Cliff Richard
!!!ENC: Nathaniel Condit-Schultz
!!!EST: Awating manual error checking and editing.
!!!OTL: Living Doll
!!!RDF**harte: Chris Harte's syntax, used by MIREX
!!!RDF**harmony: **recip + pitch class of root + harmonic quality
!!!RDF**leadinstrument: original McGill primary instrumentation annotation
!!!RDF**phrase: newline = linebreak in original McGill transcription
!!!RDF**timestamp: McGill audio timestamp in seconds
!!!RDT: 2017/01/12/
!!!SampleActualRank: 46
!!!SampleID#: 0740
!!!SampleTargetRank: 48
!!!MBID: e82fe230-621d-488a-ab27-f8e2973bbff1
